icons/svgs/palette-outline.svg

<svg width="24" height="24" viewBox="0 0 24 24" fill="none" xmlns="http://www.w3.org/2000/svg">
<path d="M20.125 12.1172C20.125 12.0781 20.125 12.0391 20.125 12C20.125 7.54688 16.4531 3.875 12 3.875C7.50781 3.875 3.875 7.54688 3.875 12C3.875 16.4922 7.50781 20.125 12 20.125C12.0781 20.125 12.1953 20.125 12.3125 20.125C12.3516 20.125 12.3516 20.125 12.3906 20.125C12.3906 20.125 12.4297 20.0859 12.4688 20.0469C12.5469 19.9688 12.625 19.8125 12.625 19.5781C12.625 19.5391 12.5859 19.3828 12.3906 18.9141C12.3516 18.875 12.3516 18.7969 12.3125 18.7578C12.1562 18.3672 11.8828 17.7812 11.7656 17.1562C11.6875 16.9219 11.6875 16.6484 11.6875 16.375C11.6875 14.3047 13.3672 12.625 15.4375 12.625H19.2656C19.5391 12.625 19.8125 12.5469 19.9297 12.4297C20.0859 12.3125 20.125 12.1953 20.125 12.1172ZM22 12.1172C21.9609 13.5625 20.6719 14.5 19.2656 14.5H15.4375C14.3828 14.5 13.5625 15.3594 13.5625 16.375C13.5625 16.5312 13.5625 16.6484 13.6016 16.7656C13.6797 17.1953 13.8359 17.5469 13.9922 17.9375C14.2266 18.4844 14.5 19.0312 14.5 19.5781C14.5 20.8281 13.6406 21.9609 12.3906 22C12.2734 22 12.1172 22 12 22C6.45312 22 2 17.5469 2 12C2 6.49219 6.45312 2 12 2C17.5078 2 22 6.49219 22 12C22 12.0391 22 12.0781 22 12.1172ZM8.25 12C8.25 12.7031 7.66406 13.25 7 13.25C6.29688 13.25 5.75 12.7031 5.75 12C5.75 11.3359 6.29688 10.75 7 10.75C7.66406 10.75 8.25 11.3359 8.25 12ZM8.25 9.5C7.54688 9.5 7 8.95312 7 8.25C7 7.58594 7.54688 7 8.25 7C8.91406 7 9.5 7.58594 9.5 8.25C9.5 8.95312 8.91406 9.5 8.25 9.5ZM13.25 7C13.25 7.70312 12.6641 8.25 12 8.25C11.2969 8.25 10.75 7.70312 10.75 7C10.75 6.33594 11.2969 5.75 12 5.75C12.6641 5.75 13.25 6.33594 13.25 7ZM15.75 9.5C15.0469 9.5 14.5 8.95312 14.5 8.25C14.5 7.58594 15.0469 7 15.75 7C16.4141 7 17 7.58594 17 8.25C17 8.95312 16.4141 9.5 15.75 9.5Z" fill="black"/>
</svg>

<svg xmlns="http://www.w3.org/2000/svg" width="24" height="24" fill="currentColor" class="icon-palette-outline" viewBox="0 0 24 24">
  <mask id="a" width="20" height="20" x="2" y="2" maskUnits="userSpaceOnUse" style="mask-type:alpha">
    <path d="M20.125 12.117V12c0-4.453-3.672-8.125-8.125-8.125-4.492 0-8.125 3.672-8.125 8.125A8.12 8.12 0 0 0 12 20.125h.391l.078-.078c.078-.078.156-.235.156-.469 0-.039-.04-.195-.234-.664-.04-.039-.04-.117-.079-.156-.156-.39-.43-.977-.546-1.602-.079-.234-.079-.508-.079-.781 0-2.07 1.68-3.75 3.75-3.75h3.829c.273 0 .547-.078.664-.195.156-.117.195-.235.195-.313m1.875 0c-.04 1.445-1.328 2.383-2.734 2.383h-3.828c-1.055 0-1.876.86-1.876 1.875 0 .156 0 .273.04.39.078.43.234.782.39 1.172.235.547.508 1.094.508 1.641 0 1.25-.86 2.383-2.11 2.422H12A9.97 9.97 0 0 1 2 12C2 6.492 6.453 2 12 2c5.508 0 10 4.492 10 10zM8.25 12c0 .703-.586 1.25-1.25 1.25-.703 0-1.25-.547-1.25-1.25 0-.664.547-1.25 1.25-1.25.664 0 1.25.586 1.25 1.25m0-2.5C7.547 9.5 7 8.953 7 8.25 7 7.586 7.547 7 8.25 7c.664 0 1.25.586 1.25 1.25 0 .703-.586 1.25-1.25 1.25m5-2.5c0 .703-.586 1.25-1.25 1.25-.703 0-1.25-.547-1.25-1.25 0-.664.547-1.25 1.25-1.25.664 0 1.25.586 1.25 1.25m2.5 2.5c-.703 0-1.25-.547-1.25-1.25 0-.664.547-1.25 1.25-1.25.664 0 1.25.586 1.25 1.25 0 .703-.586 1.25-1.25 1.25"/>
  </mask>
  <g mask="url(#a)">
    <path d="M0 0h24v24H0z"/>
  </g>
</svg>
